app/assets/icons/insta.svg

<svg width="24" height="24" viewBox="0 0 24 24" fill="none" xmlns="http://www.w3.org/2000/svg">
<path d="M12.0039 0C6.99403 0 5.52883 0.00516967 5.24402 0.0288024C4.2159 0.114287 3.57615 0.276208 2.87917 0.623314C2.34204 0.890106 1.91843 1.19936 1.50035 1.63288C0.738959 2.42347 0.277507 3.3961 0.110461 4.55226C0.0292458 5.11354 0.00561946 5.22801 0.000820359 8.09496C-0.00102545 9.05061 0.000820359 10.3083 0.000820359 11.9953C0.000820359 17.0025 0.00635778 18.4666 0.0303533 18.7509C0.113415 19.7516 0.270308 20.3812 0.602553 21.0699C1.23751 22.3882 2.45021 23.3778 3.87886 23.7471C4.37354 23.8745 4.9199 23.9446 5.6213 23.9778C5.91848 23.9908 8.94744 24 11.9783 24C15.0091 24 18.0399 23.9963 18.3297 23.9815C19.1418 23.9433 19.6134 23.88 20.1349 23.7452C20.8433 23.5635 21.5035 23.2293 22.0693 22.7659C22.6352 22.3026 23.0932 21.7212 23.4112 21.0625C23.737 20.3905 23.9022 19.7369 23.9769 18.7884C23.9932 18.5816 24 15.2847 24 11.9922C24 8.69907 23.9926 5.40821 23.9764 5.20143C23.9007 4.23765 23.7355 3.5896 23.3992 2.90462C23.1232 2.34389 22.8168 1.92515 22.372 1.49699C21.5783 0.738524 20.6074 0.276947 19.4503 0.11004C18.8897 0.0289871 18.778 0.00498504 15.9096 0H12.0039Z" fill="url(#paint0_radial_1191_4192)"/>
<path d="M12.0039 0C6.99403 0 5.52883 0.00516967 5.24402 0.0288024C4.2159 0.114287 3.57615 0.276208 2.87917 0.623314C2.34204 0.890106 1.91843 1.19936 1.50035 1.63288C0.738959 2.42347 0.277507 3.3961 0.110461 4.55226C0.0292458 5.11354 0.00561946 5.22801 0.000820359 8.09496C-0.00102545 9.05061 0.000820359 10.3083 0.000820359 11.9953C0.000820359 17.0025 0.00635778 18.4666 0.0303533 18.7509C0.113415 19.7516 0.270308 20.3812 0.602553 21.0699C1.23751 22.3882 2.45021 23.3778 3.87886 23.7471C4.37354 23.8745 4.9199 23.9446 5.6213 23.9778C5.91848 23.9908 8.94744 24 11.9783 24C15.0091 24 18.0399 23.9963 18.3297 23.9815C19.1418 23.9433 19.6134 23.88 20.1349 23.7452C20.8433 23.5635 21.5035 23.2293 22.0693 22.7659C22.6352 22.3026 23.0932 21.7212 23.4112 21.0625C23.737 20.3905 23.9022 19.7369 23.9769 18.7884C23.9932 18.5816 24 15.2847 24 11.9922C24 8.69907 23.9926 5.40821 23.9764 5.20143C23.9007 4.23765 23.7355 3.5896 23.3992 2.90462C23.1232 2.34389 22.8168 1.92515 22.372 1.49699C21.5783 0.738524 20.6074 0.276947 19.4503 0.11004C18.8897 0.0289871 18.778 0.00498504 15.9096 0H12.0039Z" fill="url(#paint1_radial_1191_4192)"/>
<path d="M11.9991 3.13867C9.5929 3.13867 9.29093 3.1492 8.34588 3.19222C7.40267 3.23542 6.75885 3.38479 6.19551 3.60394C5.61279 3.8303 5.11848 4.13309 4.62602 4.62587C4.13319 5.11847 3.83048 5.61291 3.60345 6.19561C3.38379 6.75929 3.23428 7.40346 3.19183 8.34656C3.14975 9.29187 3.13867 9.59411 3.13867 12.001C3.13867 14.4078 3.14938 14.7089 3.1922 15.6543C3.23558 16.5977 3.3849 17.2417 3.60382 17.8052C3.8303 18.3881 4.13301 18.8825 4.62565 19.3751C5.11793 19.8681 5.61224 20.1716 6.19459 20.398C6.7583 20.6171 7.4023 20.7665 8.34532 20.8097C9.29038 20.8527 9.59217 20.8632 11.9982 20.8632C14.4046 20.8632 14.7056 20.8527 15.6507 20.8097C16.5939 20.7665 17.2384 20.6171 17.8021 20.398C18.3847 20.1716 18.8782 19.8681 19.3705 19.3751C19.8633 18.8825 20.1661 18.3881 20.3931 17.8054C20.6109 17.2417 20.7604 16.5975 20.8047 15.6544C20.8472 14.7091 20.8582 14.4078 20.8582 12.001C20.8582 9.59411 20.8472 9.29205 20.8047 8.34674C20.7604 7.40328 20.6109 6.75929 20.3931 6.19579C20.1661 5.61291 19.8633 5.11847 19.3705 4.62587C18.8777 4.13291 18.3849 3.83012 17.8016 3.60394C17.2368 3.38479 16.5926 3.23542 15.6494 3.19222C14.7043 3.1492 14.4034 3.13867 11.9965 3.13867H11.9991ZM11.2043 4.73573C11.4402 4.73536 11.7034 4.73573 11.9991 4.73573C14.3647 4.73573 14.6451 4.74422 15.5792 4.78669C16.4431 4.8262 16.9119 4.97058 17.2242 5.09188C17.6377 5.25251 17.9324 5.44453 18.2424 5.75471C18.5525 6.06489 18.7444 6.3603 18.9054 6.77387C19.0266 7.0859 19.1712 7.55486 19.2105 8.41893C19.2529 9.35317 19.2622 9.6338 19.2622 11.9989C19.2622 14.364 19.2529 14.6447 19.2105 15.5789C19.171 16.443 19.0266 16.912 18.9054 17.224C18.7448 17.6376 18.5525 17.932 18.2424 18.242C17.9323 18.5522 17.6379 18.7442 17.2242 18.9049C16.9123 19.0267 16.4431 19.1707 15.5792 19.2102C14.6452 19.2527 14.3647 19.2619 11.9991 19.2619C9.63333 19.2619 9.35295 19.2527 8.41897 19.2102C7.55513 19.1704 7.0863 19.026 6.7738 18.9047C6.36034 18.7441 6.06501 18.552 5.75492 18.2419C5.44482 17.9317 5.25286 17.637 5.0919 17.2232C4.97064 16.9112 4.82611 16.4423 4.78679 15.5782C4.74434 14.644 4.73585 14.3633 4.73585 11.9967C4.73585 9.63011 4.74434 9.35095 4.78679 8.41672C4.82629 7.55265 4.97064 7.08368 5.0919 6.77129C5.25249 6.35771 5.44482 6.0623 5.75492 5.75212C6.06501 5.44194 6.36034 5.24993 6.7738 5.08893C7.08611 4.96707 7.55513 4.82306 8.41897 4.78336C9.23629 4.74644 9.55303 4.73536 11.2043 4.73351V4.73573ZM16.7284 6.20724C16.5181 6.20724 16.3126 6.26962 16.1377 6.38649C15.9629 6.50336 15.8266 6.66948 15.7461 6.86382C15.6657 7.05817 15.6446 7.27202 15.6857 7.47832C15.7267 7.68463 15.828 7.87412 15.9768 8.02283C16.1255 8.17155 16.315 8.27281 16.5212 8.3138C16.7275 8.35479 16.9413 8.33368 17.1355 8.25313C17.3298 8.17258 17.4958 8.03621 17.6126 7.86128C17.7294 7.68634 17.7917 7.48069 17.7916 7.27034C17.7916 6.68322 17.3154 6.20687 16.7284 6.20687V6.20724ZM11.9991 7.4498C9.4864 7.4498 7.44918 9.48758 7.44918 12.001C7.44918 14.5143 9.4864 16.5512 11.9991 16.5512C14.5118 16.5512 16.5485 14.5143 16.5485 12.001C16.5485 9.48758 14.5116 7.4498 11.9989 7.4498H11.9991ZM11.9991 9.04686C13.6301 9.04686 14.9524 10.3694 14.9524 12.001C14.9524 13.6324 13.6301 14.9551 11.9991 14.9551C10.368 14.9551 9.04581 13.6324 9.04581 12.001C9.04581 10.3694 10.368 9.04686 11.9991 9.04686Z" fill="white"/>
<defs>
<radialGradient id="paint0_radial_1191_4192" cx="0" cy="0" r="1" gradientUnits="userSpaceOnUse" gradientTransform="translate(6.37503 25.8485) rotate(-90) scale(23.7858 22.1226)">
<stop stop-color="#FFDD55"/>
<stop offset="0.1" stop-color="#FFDD55"/>
<stop offset="0.5" stop-color="#FF543E"/>
<stop offset="1" stop-color="#C837AB"/>
</radialGradient>
<radialGradient id="paint1_radial_1191_4192" cx="0" cy="0" r="1" gradientUnits="userSpaceOnUse" gradientTransform="translate(-4.02013 1.72892) rotate(78.6806) scale(10.6323 43.827)">
<stop stop-color="#3771C8"/>
<stop offset="0.128" stop-color="#3771C8"/>
<stop offset="1" stop-color="#6600FF" stop-opacity="0"/>
</radialGradient>
</defs>
</svg>

<svg width="24" height="24" fill="none" xmlns="http://www.w3.org/2000/svg"><path d="M12.004 0c-5.01 0-6.475.005-6.76.029-1.028.085-1.668.247-2.365.594A4.79 4.79 0 0 0 1.5 1.633C.74 2.423.278 3.396.11 4.553c-.08.56-.104.675-.11 3.542v3.9c0 5.008.006 6.472.03 6.756.083 1 .24 1.63.573 2.319a5.056 5.056 0 0 0 3.276 2.677c.495.128 1.04.198 1.742.23.297.014 3.326.023 6.357.023s6.062-.004 6.352-.018c.812-.039 1.283-.102 1.805-.237a5.022 5.022 0 0 0 3.276-2.683c.326-.672.491-1.325.566-2.274.016-.206.023-3.503.023-6.796s-.007-6.584-.024-6.79c-.075-.964-.24-1.612-.577-2.297a4.759 4.759 0 0 0-1.027-1.408C21.578.739 20.607.277 19.45.11c-.56-.081-.672-.105-3.54-.11h-3.906Z" fill="url(#a)"/><path d="M12.004 0c-5.01 0-6.475.005-6.76.029-1.028.085-1.668.247-2.365.594A4.79 4.79 0 0 0 1.5 1.633C.74 2.423.278 3.396.11 4.553c-.08.56-.104.675-.11 3.542v3.9c0 5.008.006 6.472.03 6.756.083 1 .24 1.63.573 2.319a5.056 5.056 0 0 0 3.276 2.677c.495.128 1.04.198 1.742.23.297.014 3.326.023 6.357.023s6.062-.004 6.352-.018c.812-.039 1.283-.102 1.805-.237a5.022 5.022 0 0 0 3.276-2.683c.326-.672.491-1.325.566-2.274.016-.206.023-3.503.023-6.796s-.007-6.584-.024-6.79c-.075-.964-.24-1.612-.577-2.297a4.759 4.759 0 0 0-1.027-1.408C21.578.739 20.607.277 19.45.11c-.56-.081-.672-.105-3.54-.11h-3.906Z" fill="url(#b)"/><path d="M12 3.139c-2.407 0-2.71.01-3.654.053-.943.043-1.587.193-2.15.412a4.338 4.338 0 0 0-1.57 1.022 4.35 4.35 0 0 0-1.023 1.57c-.22.563-.369 1.207-.411 2.15-.042.946-.053 1.248-.053 3.655s.01 2.708.053 3.653c.044.944.193 1.588.412 2.151.226.583.529 1.078 1.022 1.57.492.493.986.797 1.569 1.023.563.22 1.207.369 2.15.412.945.043 1.247.053 3.653.053 2.407 0 2.708-.01 3.653-.053.943-.043 1.587-.193 2.151-.412a4.335 4.335 0 0 0 1.569-1.023 4.35 4.35 0 0 0 1.022-1.57c.218-.563.367-1.207.412-2.15.042-.946.053-1.247.053-3.654s-.01-2.709-.053-3.654c-.045-.944-.194-1.588-.412-2.151a4.35 4.35 0 0 0-1.023-1.57 4.33 4.33 0 0 0-1.568-1.022c-.565-.22-1.21-.369-2.153-.412-.945-.043-1.246-.053-3.652-.053h.002Zm-.796 1.597H12c2.366 0 2.646.008 3.58.05.864.04 1.333.185 1.645.306.414.16.708.353 1.018.663.31.31.502.605.663 1.019.122.312.266.78.305 1.645.043.934.052 1.215.052 3.58s-.01 2.646-.052 3.58c-.039.864-.183 1.333-.305 1.645a2.74 2.74 0 0 1-.663 1.018 2.74 2.74 0 0 1-1.018.663c-.312.122-.78.266-1.645.305-.934.043-1.214.052-3.58.052s-2.646-.01-3.58-.052c-.864-.04-1.333-.184-1.645-.305a2.745 2.745 0 0 1-1.02-.663 2.747 2.747 0 0 1-.662-1.019c-.121-.312-.266-.78-.305-1.645-.043-.934-.051-1.215-.051-3.581 0-2.367.008-2.646.05-3.58.04-.864.185-1.333.306-1.646.16-.413.353-.709.663-1.019a2.75 2.75 0 0 1 1.019-.663c.312-.122.781-.266 1.645-.306.817-.037 1.134-.048 2.785-.05v.003Zm5.524 1.471a1.063 1.063 0 1 0 0 2.127 1.063 1.063 0 0 0 0-2.127ZM12 7.45a4.55 4.55 0 1 0 .002 9.101A4.55 4.55 0 0 0 12 7.45Zm0 1.597a2.954 2.954 0 1 1 0 5.907 2.954 2.954 0 0 1 0-5.907Z" fill="#fff"/><defs><radialGradient id="a" cx="0" cy="0" r="1" gradientUnits="userSpaceOnUse" gradientTransform="matrix(0 -23.7858 22.1226 0 6.375 25.849)"><stop stop-color="#FD5"/><stop offset=".1" stop-color="#FD5"/><stop offset=".5" stop-color="#FF543E"/><stop offset="1" stop-color="#C837AB"/></radialGradient><radialGradient id="b" cx="0" cy="0" r="1" gradientUnits="userSpaceOnUse" gradientTransform="rotate(78.681 -3.065 -1.588) scale(10.6323 43.827)"><stop stop-color="#3771C8"/><stop offset=".128" stop-color="#3771C8"/><stop offset="1" stop-color="#60F" stop-opacity="0"/></radialGradient></defs></svg>
